X: 5
T: Shandon Bells
R: jig
M: 6/8
L: 1/8
K: Dmaj
|AFD DFA|ded cBA|BGE EFA|B2 A Bcd||AFD DFA|ded cBA|Bcd ecA|dfe d2 B||AFD DFA|ded cBA|BGE EFA|B2 A Bcd||AFD DFA|ded cBA|Bcd ecA|dfe d2 B||A2 D DFA|ded cBA|BGE EFA|B2 A Bcd||AFD DFA|ded cBA|Bcd ecA|dfe d2 e||fdd ABd|faa afd|cAA eAA|cAc efg||fdd ABd|faa afd|Bcd ecA|dfe d2 e||fdd ABd|faa afd|c2 A eAA|cAc efg||fdd ABd|faa afd|Bcd ecA|dfe d2 B||A2 D DFA|ded cBA|BGE EFA|B2 A Bcd||AFD DFA|ded cBA|Bcd ecA|dfe d2 B||A2 D DFA|ded cBA|BGE EFA|B2 A Bcd||AFD DFA|ded cBA|Bcd ecA|dfe d2 e||fdd Add|faa afd|cAA eAA|cAc efg||fdd ABd|faa afd|B2 d ecA|dfe d2 e||fdd ABd|faa afd|cAA eAA|cAc efg||fdd ABd|faa afd|Bcd ecA|dfe d2 B||A2 D DFA|dfd c2 A|BEE EFA|B2 A Bcd||AFD DFA|ded cBA|Bcd ecA|dfe d2 e||f2 d ABd|faa afd|cAA eAA|cAc efg||f2 d ABd|faa afd|Bcd ecA|dfe d3|


Tune 1200	Setting 14486

